X: 43592
T: Young Terrance McDonough
R: waltz
M: 3/4
K: Gminor
GA|B2 {B}AGAB|G4 GA|B2 B/c/d Bd|c4 fe|
d2 defe|dcdefd|{d}c2 BAGF|F4 GA|
B2 AG ga|g4 a2|ba agfg|f4 dc|
B2B2 Bc|A2A2 Bc|d2G2 GA|G4||
GF|D2G2 GA|G4 GF|D2B2 Bc|B4 AG|
F2f2 fg|{g}f2 edcB|g2 agfe|d4 {e}dc|
B4 dc|{B}A4 c2|dcd=efg|f4 dc|
B2B2 Bc|A2A2 Bc|d2G2 GA|G4||

